src/topics/icons/nomad.svg

<svg height="300" viewBox="0 0 256 300" width="256" xmlns="http://www.w3.org/2000/svg"><g fill="none" fill-rule="evenodd"><path d="m0 74.435v148.174l128.696 76.521 2.987-4.757-2.987-143.808-124.271-76.042z" fill="#449b82"/><path d="m256 73.739v150.261l-127.304 75.13v-148.565l122.641-76.713z" fill="#9bdb9c"/><path d="m128 0 128 73.739-127.304 79.305-128.696-78.609z" fill="#56cdad"/><path d="m192.293 59.091-43.292 25.341v51.148l-43.376-25.757-41.709 24.415v106.906l43.292-26.549v-57.545l46.239 29.19 38.846-23.822z" fill="#fff"/></g></svg>

<?xml version="1.0" encoding="UTF-8" standalone="no"?>
<svg width="256px" height="300px" viewBox="0 0 256 300" version="1.1" xmlns="http://www.w3.org/2000/svg" xmlns:xlink="http://www.w3.org/1999/xlink">
    <defs></defs>
    <g stroke="none" stroke-width="1" fill="none" fill-rule="evenodd">
        <g>
            <path d="M0,74.435 L0,222.609 L128.696,299.13 L131.683,294.373 L128.696,150.565 L4.425,74.523 L0,74.435" fill="#449B82"></path>
            <path d="M256,73.739 L256,224 L128.696,299.13 L128.696,150.565 L251.337,73.852 L256,73.739" fill="#9BDB9C"></path>
            <path d="M128,0 L256,73.739 L128.696,153.044 L0,74.435 L128,0" fill="#56CDAD"></path>
            <path d="M192.293,59.091 L149.001,84.432 L149.001,135.58 L105.625,109.823 L63.916,134.238 L63.916,241.144 L107.208,214.595 L107.208,157.05 L153.447,186.24 L192.293,162.418 L192.293,59.091" fill="#FFFFFF"></path>
        </g>
    </g>
</svg>
